luts/gamut_mapping_shaper.cube
TITLE "gamut mapping shaper"
LUT_1D_SIZE 1001
DOMAIN_MIN -0.5 -0.5 -0.5
DOMAIN_MAX 1.5 1.5 1.5
5.008243819659697e-12 5.008243819659697e-12 5.008243819659697e-12
0.00033377877307516624 0.00033377877307516624 0.00033377877307516624
0.0006684523930625408 0.0006684523930625408 0.0006684523930625408
0.0010040268868831692 0.0010040268868831692 0.0010040268868831692
0.0013405083415518604 0.0013405083415518604 0.0013405083415518604
0.0016779029101574583 0.0016779029101574583 0.0016779029101574583
0.002016216812852828 0.002016216812852828 0.002016216812852828
0.002355456337864048 0.002355456337864048 0.002355456337864048
0.0026956278425191993 0.0026956278425191993 0.0026956278425191993
0.003036737754296581 0.003036737754296581 0.003036737754296581
0.003378792571893552 0.003378792571893552 0.003378792571893552
0.003721798866316267 0.003721798866316267 0.003721798866316267
0.0040657632819903755 0.0040657632819903755 0.0040657632819903755
0.00441069253789389 0.00441069253789389 0.00441069253789389
0.004756593428712125 0.004756593428712125 0.004756593428712125
0.0051034728260156426 0.0051034728260156426 0.0051034728260156426
0.005451337679461626 0.005451337679461626 0.005451337679461626
0.005800195018019205 0.005800195018019205 0.005800195018019205
0.0061500519512193985 0.0061500519512193985 0.0061500519512193985
0.006500915670430041 0.006500915670430041 0.006500915670430041
0.006852793450156991 0.006852793450156991 0.006852793450156991
0.0072056926493710705 0.0072056926493710705 0.0072056926493710705
0.007559620712862841 0.007559620712862841 0.007559620712862841
0.0079145851726245 0.0079145851726245 0.0079145851726245
0.008270593649260582 0.008270593649260582 0.008270593649260582
0.00862765385342798 0.00862765385342798 0.00862765385342798
0.008985773587305235 0.008985773587305235 0.008985773587305235
0.009344960746093312 0.009344960746093312 0.009344960746093312
0.00970522331954718 0.00970522331954718 0.00970522331954718
0.010066569393539976 0.010066569393539976 0.010066569393539976
0.010429007151660119 0.010429007151660119 0.010429007151660119
0.01079254487684242 0.01079254487684242 0.01079254487684242
0.011157190953033885 0.011157190953033885 0.011157190953033885
0.011522953866895475 0.011522953866895475 0.011522953866895475
0.011889842209540147 0.011889842209540147 0.011889842209540147
0.012257864678308916 0.012257864678308916 0.012257864678308916
0.012627030078585288 0.012627030078585288 0.012627030078585288
0.012997347325649194 0.012997347325649194 0.012997347325649194
0.013368825446572002 0.013368825446572002 0.013368825446572002
0.013741473582152997 0.013741473582152997 0.013741473582152997
0.014115300988898821 0.014115300988898821 0.014115300988898821
0.014490317041046974 0.014490317041046974 0.014490317041046974
0.014866531232634705 0.014866531232634705 0.014866531232634705
0.015243953179614106 0.015243953179614106 0.015243953179614106
0.015622592622015374 0.015622592622015374 0.015622592622015374
0.016002459426158744 0.016002459426158744 0.016002459426158744
0.01638356358691706 0.01638356358691706 0.01638356358691706
0.016765915230030237 0.016765915230030237 0.016765915230030237
0.017149524614472916 0.017149524614472916 0.017149524614472916
0.017534402134876975 0.017534402134876975 0.017534402134876975
0.01792055832401032 0.01792055832401032 0.01792055832401032
0.018308003855313587 0.018308003855313587 0.018308003855313587
0.018696749545496605 0.018696749545496605 0.018696749545496605
0.01908680635719598 0.01908680635719598 0.01908680635719598
0.019478185401695713 0.019478185401695713 0.019478185401695713
0.019870897941712984 0.019870897941712984 0.019870897941712984
0.020264955394250272 0.020264955394250272 0.020264955394250272
0.02066036933351681 0.02066036933351681 0.02066036933351681
0.02105715149392004 0.02105715149392004 0.02105715149392004
0.021455313773130646 0.021455313773130646 0.021455313773130646
0.02185486823522209 0.02185486823522209 0.02185486823522209
0.02225582711388771 0.02225582711388771 0.02225582711388771
0.02265820281573716 0.02265820281573716 0.02265820281573716
0.023062007923674965 0.023062007923674965 0.023062007923674965
0.023467255200363496 0.023467255200363496 0.023467255200363496
0.023873957591773104 0.023873957591773104 0.023873957591773104
0.024282128230821765 0.024282128230821765 0.024282128230821765
0.024691780441107175 0.024691780441107175 0.024691780441107175
0.025102927740734637 0.025102927740734637 0.025102927740734637
0.025515583846242668 0.025515583846242668 0.025515583846242668
0.025929762676630552 0.025929762676630552 0.025929762676630552
0.026345478357490015 0.026345478357490015 0.026345478357490015
0.026762745225245216 0.026762745225245216 0.026762745225245216
0.02718157783150399 0.02718157783150399 0.02718157783150399
0.027601990947523775 0.027601990947523775 0.027601990947523775
0.02802399956879667 0.02802399956879667 0.02802399956879667
0.02844761891975664 0.02844761891975664 0.02844761891975664
0.028872864458613257 0.028872864458613257 0.028872864458613257
0.029299751882316094 0.029299751882316094 0.029299751882316094
0.029728297131654285 0.029728297131654285 0.029728297131654285
0.03015851639649514 0.03015851639649514 0.03015851639649514
0.030590426121167247 0.030590426121167247 0.030590426121167247
0.031024043009992286 0.031024043009992286 0.031024043009992286
0.03145938403297083 0.03145938403297083 0.03145938403297083
0.03189646643162741 0.03189646643162741 0.03189646643162741
0.03233530772502019 0.03233530772502019 0.03233530772502019
0.032775925715921056 0.032775925715921056 0.032775925715921056
0.03321833849717179 0.03321833849717179 0.03321833849717179
0.03366256445822263 0.03366256445822263 0.03366256445822263
0.03410862229185968 0.03410862229185968 0.03410862229185968
0.0345565310011276 0.0345565310011276 0.0345565310011276
0.0350063099064547 0.0350063099064547 0.0350063099064547
0.035457978652987554 0.035457978652987554 0.035457978652987554
0.03591155721814282 0.03591155721814282 0.03591155721814282
0.03636706591938385 0.03636706591938385 0.03636706591938385
0.03682452542223058 0.03682452542223058 0.03682452542223058
0.037283956748511066 0.037283956748511066 0.037283956748511066
0.03774538128486343 0.03774538128486343 0.03774538128486343
0.03820882079149818 0.03820882079149818 0.03820882079149818
0.038674297411229464 0.038674297411229464 0.038674297411229464
0.03914183367878682 0.03914183367878682 0.03914183367878682
0.03961145253041651 0.03961145253041651 0.03961145253041651
0.040083177313784885 0.040083177313784885 0.040083177313784885
0.040557031798194365 0.040557031798194365 0.040557031798194365
0.04103304018512463 0.04103304018512463 0.04103304018512463
0.04151122711911151 0.04151122711911151 0.04151122711911151
0.041991617698976635 0.041991617698976635 0.041991617698976635
0.04247423748942225 0.04247423748942225 0.04247423748942225
0.042959112533004995 0.042959112533004995 0.042959112533004995
0.04344626936250412 0.04344626936250412 0.04344626936250412
0.04393573501370024 0.04393573501370024 0.04393573501370024
0.04442753703858099 0.04442753703858099 0.04442753703858099
0.04492170351899094 0.04492170351899094 0.04492170351899094
0.04541826308074462 0.04541826308074462 0.04541826308074462
0.045917244908220994 0.045917244908220994 0.045917244908220994
0.04641867875946035 0.04641867875946035 0.04641867875946035
0.04692259498178428 0.04692259498178428 0.04692259498178428
0.04742902452796077 0.04742902452796077 0.04742902452796077
0.047937998972938406 0.047937998972938406 0.047937998972938406
0.04844955053117314 0.04844955053117314 0.04844955053117314
0.04896371207457445 0.04896371207457445 0.04896371207457445
0.04948051715109694 0.04948051715109694 0.04948051715109694
0.05000000000400662 0.05000000000400662 0.05000000000400662
0.05052219559185109 0.05052219559185109 0.05052219559185109
0.05104713960916604 0.05104713960916604 0.05104713960916604
0.05157486850795012 0.05157486850795012 0.05157486850795012
0.05210541951994416 0.05210541951994416 0.05210541951994416
0.052638830679750864 0.052638830679750864 0.052638830679750864
0.05317514084883432 0.05317514084883432 0.05317514084883432
0.05371438974043996 0.05371438974043996 0.05371438974043996
0.05425661794547815 0.05425661794547815 0.05425661794547815
0.05480186695941766 0.05480186695941766 0.05480186695941766
0.05535017921023641 0.05535017921023641 0.05535017921023641
0.055901598087480714 0.055901598087480714 0.055901598087480714
0.056456167972487425 0.056456167972487425 0.056456167972487425
0.05701393426982507 0.05701393426982507 0.05701393426982507
0.0575749434400146 0.0575749434400146 0.0575749434400146
0.05813924303359397 0.05813924303359397 0.05813924303359397
0.0587068817265933 0.0587068817265933 0.0587068817265933
0.05927790935749283 0.05927790935749283 0.05927790935749283
0.05985237696573967 0.05985237696573967 0.05985237696573967
0.0604303368319031 0.0604303368319031 0.0604303368319031
0.06101184251955499 0.06101184251955499 0.06101184251955499
0.06159694891896522 0.06159694891896522 0.06159694891896522
0.06218571229270886 0.06218571229270886 0.06218571229270886
0.06277819032328791 0.06277819032328791 0.06277819032328791
0.06337444216287624 0.06337444216287624 0.06337444216287624
0.063974528485304 0.063974528485304 0.063974528485304
0.06457851154040506 0.06457851154040506 0.06457851154040506
0.06518645521085947 0.06518645521085947 0.06518645521085947
0.06579842507167077 0.06579842507167077 0.06579842507167077
0.0664144884524287 0.0664144884524287 0.0664144884524287
0.06703471450251677 0.06703471450251677 0.06703471450251677
0.06765917425943585 0.06765917425943585 0.06765917425943585
0.06828794072042627 0.06828794072042627 0.06828794072042627
0.06892108891758403 0.06892108891758403 0.06892108891758403
0.06955869599668005 0.06955869599668005 0.06955869599668005
0.07020084129990667 0.07020084129990667 0.07020084129990667
0.07084760645279164 0.07084760645279164 0.07084760645279164
0.07149907545553696 0.07149907545553696 0.07149907545553696
0.07215533477905961 0.07215533477905961 0.07215533477905961
0.07281647346603065 0.07281647346603065 0.07281647346603065
0.07348258323723303 0.07348258323723303 0.07348258323723303
0.07415375860358114 0.07415375860358114 0.07415375860358114
0.07483009698417295 0.07483009698417295 0.07483009698417295
0.07551169883077335 0.07551169883077335 0.07551169883077335
0.07619866775915929 0.07619866775915929 0.07619866775915929
0.07689111068779192 0.07689111068779192 0.07689111068779192
0.07758913798431738 0.07758913798431738 0.07758913798431738
0.07829286362044005 0.07829286362044005 0.07829286362044005
0.07900240533575592 0.07900240533575592 0.07900240533575592
0.0797178848111843 0.0797178848111843 0.0797178848111843
0.08043942785268846 0.08043942785268846 0.08043942785268846
0.08116716458603668 0.08116716458603668 0.08116716458603668
0.08190122966341934 0.08190122966341934 0.08190122966341934
0.0826417624828103 0.0826417624828103 0.0826417624828103
0.08338890742104005 0.08338890742104005 0.08338890742104005
0.08414281408163518 0.08414281408163518 0.08414281408163518
0.08490363755857602 0.08490363755857602 0.08490363755857602
0.08567153871723124 0.08567153871723124 0.08567153871723124
0.08644668449384699 0.08644668449384699 0.08644668449384699
0.08722924821509997 0.08722924821509997 0.08722924821509997
0.0880194099393708 0.0880194099393708 0.0880194099393708
0.08881735682155611 0.08881735682155611 0.08881735682155611
0.08962328350342152 0.08962328350342152 0.08962328350342152
0.09043739253169883 0.09043739253169883 0.09043739253169883
0.0912598948063601 0.0912598948063601 0.0912598948063601
0.09209101006175391 0.09209101006175391 0.09209101006175391
0.09293096738357692 0.09293096738357692 0.09293096738357692
0.09378000576497345 0.09378000576497345 0.09378000576497345
0.09463837470541941 0.09463837470541941 0.09463837470541941
0.09550633485645388 0.09550633485645388 0.09550633485645388
0.09638415871878503 0.09638415871878503 0.09638415871878503
0.09727213139581944 0.09727213139581944 0.09727213139581944
0.09817055140925848 0.09817055140925848 0.09817055140925848
0.09907973158308123 0.09907973158308123 0.09907973158308123
0.10000000000300496 0.10000000000300496 0.10000000000300496
0.100931701059394 0.100931701059394 0.100931701059394
0.10187519658259886 0.10187519658259886 0.10187519658259886
0.10283086708086484 0.10283086708086484 0.10283086708086484
0.10379911309228554 0.10379911309228554 0.10379911309228554
0.1047803566638166 0.1047803566638166 0.1047803566638166
0.10577504297214843 0.10577504297214843 0.10577504297214843
0.10678364210330812 0.10678364210330812 0.10678364210330812
0.10780665101027029 0.10780665101027029 0.10780665101027029
0.10884459567067348 0.10884459567067348 0.10884459567067348
0.10989803347003729 0.10989803347003729 0.10989803347003729
0.11096755583975432 0.11096755583975432 0.11096755583975432
0.11205379118370742 0.11205379118370742 0.11205379118370742
0.11315740813278066 0.11315740813278066 0.11315740813278066
0.11427911917297356 0.11427911917297356 0.11427911917297356
0.11541968470051395 0.11541968470051395 0.11541968470051395
0.11657991756657554 0.11657991756657554 0.11657991756657554
0.11776068818529395 0.11776068818529395 0.11776068818529395
0.11896293029218025 0.11896293029218025 0.11896293029218025
0.12018764745632293 0.12018764745632293 0.12018764745632293
0.12143592046966376 0.12143592046966376 0.12143592046966376
0.1227089157610628 0.1227089157610628 0.1227089157610628
0.12400789501303669 0.12400789501303669 0.12400789501303669
0.12533422619653128 0.12533422619653128 0.12533422619653128
0.12668939628594678 0.12668939628594678 0.12668939628594678
0.1280750259756097 0.1280750259756097 0.1280750259756097
0.12949288679365262 0.12949288679365262 0.12949288679365262
0.13094492110477007 0.13094492110477007 0.13094492110477007
0.13243326561631735 0.13243326561631735 0.13243326561631735
0.13396027916200515 0.13396027916200515 0.13396027916200515
0.13552857574696003 0.13552857574696003 0.13552857574696003
0.13714106411541088 0.13714106411541088 0.13714106411541088
0.1388009954737619 0.1388009954737619 0.1388009954737619
0.14051202150499614 0.14051202150499614 0.14051202150499614
0.14227826550056383 0.14227826550056383 0.14227826550056383
0.14410441039574912 0.14410441039574912 0.14410441039574912
0.14599580884948832 0.14599580884948832 0.14599580884948832
0.1479586224541105 0.1479586224541105 0.1479586224541105
0.1500000000020033 0.1500000000020033 0.1500000000020033
0.15212830897273905 0.15212830897273905 0.15212830897273905
0.1543534408632966 0.1543534408632966 0.1543534408632966
0.15668722108143812 0.15668722108143812 0.15668722108143812
0.1591439703602131 0.1591439703602131 0.1591439703602131
0.1617412916186165 0.1617412916186165 0.1617412916186165
0.16450120266787793 0.16450120266787793 0.16450120266787793
0.167451818779288 0.167451818779288 0.167451818779288
0.17062994740318 0.17062994740318 0.17062994740318
0.17408527570462923 0.17408527570462923 0.17408527570462923
0.17788752148607417 0.17788752148607417 0.17788752148607417
0.18213955958648675 0.18213955958648675 0.18213955958648675
0.18700394750651833 0.18700394750651833 0.18700394750651833
0.19276428787348 0.19276428787348 0.19276428787348
0.20000000000100163 0.20000000000100163 0.20000000000100163
0.21031497370159 0.21031497370159 0.21031497370159
0.25 0.25 0.25
0.33189486824316683 0.33189486824316683 0.33189486824316683
0.353181068377933 0.353181068377933 0.353181068377933
0.36811283853408916 0.36811283853408916 0.36811283853408916
0.38000000000000006 0.38000000000000006 0.38000000000000006
0.3900382548520725 0.3900382548520725 0.3900382548520725
0.39881285153193324 0.39881285153193324 0.39881285153193324
0.40665924717139 0.40665924717139 0.40665924717139
0.4137897364863336 0.4137897364863336 0.4137897364863336
0.4203481906235783 0.4203481906235783 0.4203481906235783
0.426437145078669 0.426437145078669 0.426437145078669
0.43213255649260024 0.43213255649260024 0.43213255649260024
0.43749244413996313 0.43749244413996313 0.43749244413996313
0.4425622444464792 0.4425622444464792 0.4425622444464792
0.44737828317191813 0.44737828317191813 0.44737828317191813
0.45197011288700095 0.45197011288700095 0.45197011288700095
0.456362136755866 0.456362136755866 0.456362136755866
0.46057476708303646 0.46057476708303646 0.46057476708303646
0.4646252711781508 0.4646252711781508 0.4646252711781508
0.4685284014419327 0.4685284014419327 0.4685284014419327
0.4722968730679707 0.4722968730679707 0.4722968730679707
0.4759417319176193 0.4759417319176193 0.4759417319176193
0.4794726417961942 0.4794726417961942 0.4794726417961942
0.48289811161603663 0.48289811161603663 0.48289811161603663
0.4862256770681782 0.4862256770681782 0.4862256770681782
0.48946204741162525 0.48946204741162525 0.48946204741162525
0.49261322519312123 0.49261322519312123 0.49261322519312123
0.4956846047295004 0.4956846047295004 0.4956846047295004
0.49868105376041066 0.49868105376041066 0.49868105376041066
0.5016069816408069 0.5016069816408069 0.5016069816408069
0.5044663966759761 0.5044663966759761 0.5044663966759761
0.5072629546292264 0.5072629546292264 0.5072629546292264
0.51 0.51 0.51
0.5126806013404424 0.5126806013404424 0.5126806013404424
0.5153075816246275 0.5153075816246275 0.5153075816246275
0.5178835444875561 0.5178835444875561 0.5178835444875561
0.5204108969967475 0.5204108969967475 0.5204108969967475
0.5228918694975464 0.5228918694975464 0.5228918694975464
0.525328532976568 0.525328532976568 0.525328532976568
0.5277228143103645 0.5277228143103645 0.5277228143103645
0.5300765097041449 0.5300765097041449 0.5300765097041449
0.5323912965749598 0.5323912965749598 0.5323912965749598
0.5346687440927128 0.5346687440927128 0.5346687440927128
0.5369103225587367 0.5369103225587367 0.5369103225587367
0.539117411774011 0.539117411774011 0.539117411774011
0.5412913085262157 0.5412913085262157 0.5412913085262157
0.5434332333058101 0.5434332333058101 0.5434332333058101
0.5455443363454624 0.5455443363454624 0.5455443363454624
0.5476257030638663 0.5476257030638663 0.5476257030638663
0.549678358983799 0.549678358983799 0.549678358983799
0.5517032741848307 0.5517032741848307 0.5517032741848307
0.5537013673430919 0.5537013673430919 0.5537013673430919
0.5556735094036984 0.5556735094036984 0.5556735094036984
0.5576205269256189 0.5576205269256189 0.5576205269256189
0.559543205133799 0.559543205133799 0.559543205133799
0.561442290709081 0.561442290709081 0.561442290709081
0.5633184943427799 0.5633184943427799 0.5633184943427799
0.5651724930795922 0.5651724930795922 0.5651724930795922
0.5670049324697654 0.5670049324697654 0.5670049324697654
0.5688164285490611 0.5688164285490611 0.5688164285490611
0.5706075696629611 0.5706075696629611 0.5706075696629611
0.5723789181497496 0.5723789181497496 0.5723789181497496
0.5741310118955121 0.5741310118955121 0.5741310118955121
0.5758643657726981 0.5758643657726981 0.5758643657726981
0.5775794729726671 0.5775794729726671 0.5775794729726671
0.5792768062415576 0.5792768062415576 0.5792768062415576
0.5809568190278668 0.5809568190278668 0.5809568190278668
0.5826199465492832 0.5826199465492832 0.5826199465492832
0.5842666067855706 0.5842666067855706 0.5842666067855706
0.5858972014036354 0.5858972014036354 0.5858972014036354
0.5875121166203218 0.5875121166203218 0.5875121166203218
0.5891117240079509 0.5891117240079509 0.5891117240079509
0.5906963812471566 0.5906963812471566 0.5906963812471566
0.5922664328311436 0.5922664328311436 0.5922664328311436
0.5938222107251235 0.5938222107251235 0.5938222107251235
0.5953640349843486 0.5953640349843486 0.5953640349843486
0.5968922143338529 0.5968922143338529 0.5968922143338529
0.5984070467127487 0.5984070467127487 0.5984070467127487
0.5999088197856735 0.5999088197856735 0.5999088197856735
0.6013978114237646 0.6013978114237646 0.6013978114237646
0.6028742901573378 0.6028742901573378 0.6028742901573378
0.6043385156022674 0.6043385156022674 0.6043385156022674
0.6057907388618978 0.6057907388618978 0.6057907388618978
0.6072312029061759 0.6072312029061759 0.6072312029061759
0.6086601429295457 0.6086601429295457 0.6086601429295457
0.6100777866890402 0.6100777866890402 0.6100777866890402
0.6114843548238804 0.6114843548238804 0.6114843548238804
0.6128800611577977 0.6128800611577977 0.6128800611577977
0.6142651129852004 0.6142651129852004 0.6142651129852004
0.6156397113422207 0.6156397113422207 0.6156397113422207
0.6170040512636011 0.6170040512636011 0.6170040512636011
0.6183583220263091 0.6183583220263091 0.6183583220263091
0.6197027073807035 0.6197027073807035 0.6197027073807035
0.6210373857700161 0.6210373857700161 0.6210373857700161
0.6223625305388585 0.6223625305388585 0.6223625305388585
0.623678310131414 0.623678310131414 0.623678310131414
0.6249848882799263 0.6249848882799263 0.6249848882799263
0.6262824241840563 0.6262824241840563 0.6262824241840563
0.6275710726816408 0.6275710726816408 0.6275710726816408
0.6288509844113446 0.6288509844113446 0.6288509844113446
0.6301223059676726 0.6301223059676726 0.6301223059676726
0.63138518004877 0.63138518004877 0.63138518004877
0.6326397455974169 0.6326397455974169 0.6326397455974169
0.6338861379355918 0.6338861379355918 0.6338861379355918
0.6351244888929581 0.6351244888929581 0.6351244888929581
0.6363549269296034 0.6363549269296034 0.6363549269296034
0.6375775772533399 0.6375775772533399 0.6375775772533399
0.6387925619318575 0.6387925619318575 0.6387925619318575
0.64 0.64 0.64
0.6412000075624195 0.6412000075624195 0.6412000075624195
0.6423926978918495 0.6423926978918495 0.6423926978918495
0.6435781815232218 0.6435781815232218 0.6435781815232218
0.6447565663438362 0.6447565663438362 0.6447565663438362
0.6459279576797861 0.6459279576797861 0.6459279576797861
0.6470924583788245 0.6470924583788245 0.6470924583788245
0.648250168889847 0.648250168889847 0.648250168889847
0.6494011873391602 0.6494011873391602 0.6494011873391602
0.6505456096036875 0.6505456096036875 0.6505456096036875
0.6516835293812668 0.6516835293812668 0.6516835293812668
0.6528150382581732 0.6528150382581732 0.6528150382581732
0.6539402257740017 0.6539402257740017 0.6539402257740017
0.6550591794840339 0.6550591794840339 0.6550591794840339
0.6561719850192058 0.6561719850192058 0.6561719850192058
0.6572787261437877 0.6572787261437877 0.6572787261437877
0.658379484810881 0.658379484810881 0.658379484810881
0.6594743412158338 0.6594743412158338 0.6594743412158338
0.6605633738476646 0.6605633738476646 0.6605633738476646
0.6616466595385895 0.6616466595385895 0.6616466595385895
0.6627242735117318 0.6627242735117318 0.6627242735117318
0.6637962894270981 0.6637962894270981 0.6637962894270981
0.664862779425894 0.664862779425894 0.664862779425894
0.6659238141732552 0.6659238141732552 0.6659238141732552
0.6669794628994574 0.6669794628994574 0.6669794628994574
0.6680297934396756 0.6680297934396756 0.6680297934396756
0.6690748722723494 0.6690748722723494 0.6690748722723494
0.6701147645562173 0.6701147645562173 0.6701147645562173
0.6711495341660728 0.6711495341660728 0.6711495341660728
0.6721792437272971 0.6721792437272971 0.6721792437272971
0.6732039546492181 0.6732039546492181 0.6732039546492181
0.6742237271573439 0.6742237271573439 0.6742237271573439
0.6752386203245166 0.6752386203245166 0.6752386203245166
0.6762486921010313 0.6762486921010313 0.6762486921010313
0.677253999343758 0.677253999343758 0.677253999343758
0.6782545978443113 0.6782545978443113 0.6782545978443113
0.6792505423563016 0.6792505423563016 0.6792505423563016
0.6802418866217049 0.6802418866217049 0.6802418866217049
0.6812286833963874 0.6812286833963874 0.6812286833963874
0.6822109844748134 0.6822109844748134 0.6822109844748134
0.6831888407139739 0.6831888407139739 0.6831888407139739
0.6841623020565595 0.6841623020565595 0.6841623020565595
0.6851314175534102 0.6851314175534102 0.6851314175534102
0.6860962353852695 0.6860962353852695 0.6860962353852695
0.6870568028838653 0.6870568028838653 0.6870568028838653
0.6880131665523468 0.6880131665523468 0.6880131665523468
0.6889653720850983 0.6889653720850983 0.6889653720850983
