luts/saturation_mapping.cube
TITLE "saturation mapping"
LUT_1D_SIZE 4096
DOMAIN_MIN 0.0 0.0 0.0
DOMAIN_MAX 4.0 4.0 400.0
0.0 0.0 0.0
0.0009768009768009768 0.0009768009768009768 0.09768009768009768
0.0019536019536019536 0.0019536019536019536 0.19536019536019536
0.0029304029304029304 0.0029304029304029304 0.29304029304029305
0.003907203907203907 0.003907203907203907 0.3907203907203907
0.004884004884004884 0.004884004884004884 0.4884004884004884
0.005860805860805861 0.005860805860805861 0.5860805860805861
0.006837606837606838 0.006837606837606838 0.6837606837606838
0.007814407814407814 0.007814407814407814 0.7814407814407814
0.008791208791208791 0.008791208791208791 0.8791208791208791
0.009768009768009768 0.009768009768009768 0.9768009768009768
0.010744810744810745 0.010744810744810745 1.0744810744810744
0.011721611721611722 0.011721611721611722 1.1721611721611722
0.012698412698412698 0.012698412698412698 1.2698412698412698
0.013675213675213675 0.013675213675213675 1.3675213675213675
0.014652014652014652 0.014652014652014652 1.465201465201465
0.01562881562881563 0.01562881562881563 1.5628815628815629
0.016605616605616606 0.016605616605616606 1.6605616605616607
0.017582417582417582 0.017582417582417582 1.7582417582417582
0.01855921855921856 0.01855921855921856 1.855921855921856
0.019536019536019536 0.019536019536019536 1.9536019536019535
0.020512820512820513 0.020512820512820513 2.051282051282051
0.02148962148962149 0.02148962148962149 2.148962148962149
0.022466422466422466 0.022466422466422466 2.2466422466422467
0.023443223443223443 0.023443223443223443 2.3443223443223444
0.02442002442002442 0.02442002442002442 2.442002442002442
0.025396825396825397 0.025396825396825397 2.5396825396825395
0.026373626373626374 0.026373626373626374 2.6373626373626373
0.02735042735042735 0.02735042735042735 2.735042735042735
0.028327228327228327 0.028327228327228327 2.832722832722833
0.029304029304029304 0.029304029304029304 2.93040293040293
0.03028083028083028 0.03028083028083028 3.028083028083028
0.03125763125763126 0.03125763125763126 3.1257631257631258
0.03223443223443224 0.03223443223443224 3.223443223443224
0.03321123321123321 0.03321123321123321 3.3211233211233213
0.03418803418803419 0.03418803418803419 3.418803418803419
0.035164835164835165 0.035164835164835165 3.5164835164835164
0.036141636141636145 0.036141636141636145 3.6141636141636146
0.03711843711843712 0.03711843711843712 3.711843711843712
0.0380952380952381 0.0380952380952381 3.8095238095238098
0.03907203907203907 0.03907203907203907 3.907203907203907
0.04004884004884005 0.04004884004884005 4.004884004884005
0.041025641025641026 0.041025641025641026 4.102564102564102
0.042002442002442006 0.042002442002442006 4.2002442002442
0.04297924297924298 0.04297924297924298 4.297924297924298
0.04395604395604396 0.04395604395604396 4.395604395604396
0.04493284493284493 0.04493284493284493 4.493284493284493
0.04590964590964591 0.04590964590964591 4.5909645909645915
0.046886446886446886 0.046886446886446886 4.688644688644689
0.04786324786324787 0.04786324786324787 4.786324786324787
0.04884004884004884 0.04884004884004884 4.884004884004884
0.04981684981684982 0.04981684981684982 4.981684981684982
0.050793650793650794 0.050793650793650794 5.079365079365079
0.051770451770451774 0.051770451770451774 5.177045177045177
0.05274725274725275 0.05274725274725275 5.274725274725275
0.05372405372405373 0.05372405372405373 5.372405372405373
0.0547008547008547 0.0547008547008547 5.47008547008547
0.05567765567765568 0.05567765567765568 5.567765567765568
0.056654456654456654 0.056654456654456654 5.665445665445666
0.057631257631257635 0.057631257631257635 5.763125763125763
0.05860805860805861 0.05860805860805861 5.86080586080586
0.05958485958485959 0.05958485958485959 5.958485958485959
0.06056166056166056 0.06056166056166056 6.056166056166056
0.06153846153846154 0.06153846153846154 6.153846153846154
0.06251526251526252 0.06251526251526252 6.2515262515262515
0.06349206349206349 0.06349206349206349 6.349206349206349
0.06446886446886448 0.06446886446886448 6.446886446886448
0.06544566544566545 0.06544566544566545 6.544566544566545
0.06642246642246642 0.06642246642246642 6.642246642246643
0.0673992673992674 0.0673992673992674 6.73992673992674
0.06837606837606838 0.06837606837606838 6.837606837606838
0.06935286935286936 0.06935286935286936 6.9352869352869355
0.07032967032967033 0.07032967032967033 7.032967032967033
0.0713064713064713 0.0713064713064713 7.13064713064713
0.07228327228327229 0.07228327228327229 7.228327228327229
0.07326007326007326 0.07326007326007326 7.326007326007327
0.07423687423687424 0.07423687423687424 7.423687423687424
0.07521367521367521 0.07521367521367521 7.521367521367521
0.0761904761904762 0.0761904761904762 7.6190476190476195
0.07716727716727717 0.07716727716727717 7.716727716727717
0.07814407814407814 0.07814407814407814 7.814407814407814
0.07912087912087912 0.07912087912087912 7.9120879120879115
0.0800976800976801 0.0800976800976801 8.00976800976801
0.08107448107448108 0.08107448107448108 8.107448107448107
0.08205128205128205 0.08205128205128205 8.205128205128204
0.08302808302808302 0.08302808302808302 8.302808302808302
0.08400488400488401 0.08400488400488401 8.4004884004884
0.08498168498168499 0.08498168498168499 8.498168498168498
0.08595848595848596 0.08595848595848596 8.595848595848596
0.08693528693528693 0.08693528693528693 8.693528693528693
0.08791208791208792 0.08791208791208792 8.791208791208792
0.08888888888888889 0.08888888888888889 8.88888888888889
0.08986568986568987 0.08986568986568987 8.986568986568987
0.09084249084249084 0.09084249084249084 9.084249084249084
0.09181929181929183 0.09181929181929183 9.181929181929183
0.0927960927960928 0.0927960927960928 9.27960927960928
0.09377289377289377 0.09377289377289377 9.377289377289378
0.09474969474969475 0.09474969474969475 9.474969474969475
0.09572649572649573 0.09572649572649573 9.572649572649574
0.0967032967032967 0.0967032967032967 9.670329670329672
0.09768009768009768 0.09768009768009768 9.768009768009769
0.09865689865689865 0.09865689865689865 9.865689865689866
0.09963369963369964 0.09963369963369964 9.963369963369964
0.10061050061050061 0.10061050061050061 10.06105006105006
0.10158730158730159 0.10158730158730159 10.158730158730158
0.10256410256410256 0.10256410256410256 10.256410256410255
0.10354090354090355 0.10354090354090355 10.354090354090355
0.10451770451770452 0.10451770451770452 10.451770451770452
0.1054945054945055 0.1054945054945055 10.54945054945055
0.10647130647130647 0.10647130647130647 10.647130647130647
0.10744810744810745 0.10744810744810745 10.744810744810746
0.10842490842490843 0.10842490842490843 10.842490842490843
0.1094017094017094 0.1094017094017094 10.94017094017094
0.11037851037851037 0.11037851037851037 11.037851037851038
0.11135531135531136 0.11135531135531136 11.135531135531137
0.11233211233211234 0.11233211233211234 11.233211233211234
0.11330891330891331 0.11330891330891331 11.330891330891331
0.11428571428571428 0.11428571428571428 11.428571428571429
0.11526251526251527 0.11526251526251527 11.526251526251526
0.11623931623931624 0.11623931623931624 11.623931623931623
0.11721611721611722 0.11721611721611722 11.72161172161172
0.11819291819291819 0.11819291819291819 11.819291819291818
0.11916971916971918 0.11916971916971918 11.916971916971917
0.12014652014652015 0.12014652014652015 12.014652014652015
0.12112332112332112 0.12112332112332112 12.112332112332112
0.1221001221001221 0.1221001221001221 12.21001221001221
0.12307692307692308 0.12307692307692308 12.307692307692308
0.12405372405372406 0.12405372405372406 12.405372405372406
0.12503052503052503 0.12503052503052503 12.503052503052503
0.126007326007326 0.126007326007326 12.6007326007326
0.12698412698412698 0.12698412698412698 12.698412698412698
0.12796092796092795 0.12796092796092795 12.796092796092795
0.12893772893772895 0.12893772893772895 12.893772893772896
0.12991452991452992 0.12991452991452992 12.991452991452993
0.1308913308913309 0.1308913308913309 13.08913308913309
0.13186813186813187 0.13186813186813187 13.186813186813188
0.13284493284493284 0.13284493284493284 13.284493284493285
0.13382173382173382 0.13382173382173382 13.382173382173383
0.1347985347985348 0.1347985347985348 13.47985347985348
0.13577533577533576 0.13577533577533576 13.577533577533577
0.13675213675213677 0.13675213675213677 13.675213675213676
0.13772893772893774 0.13772893772893774 13.772893772893774
0.1387057387057387 0.1387057387057387 13.870573870573871
0.13968253968253969 0.13968253968253969 13.968253968253968
0.14065934065934066 0.14065934065934066 14.065934065934066
0.14163614163614163 0.14163614163614163 14.163614163614163
0.1426129426129426 0.1426129426129426 14.26129426129426
0.14358974358974358 0.14358974358974358 14.358974358974358
0.14456654456654458 0.14456654456654458 14.456654456654459
0.14554334554334555 0.14554334554334555 14.554334554334556
0.14652014652014653 0.14652014652014653 14.652014652014653
0.1474969474969475 0.1474969474969475 14.74969474969475
0.14847374847374847 0.14847374847374847 14.847374847374848
0.14945054945054945 0.14945054945054945 14.945054945054945
0.15042735042735042 0.15042735042735042 15.042735042735043
0.1514041514041514 0.1514041514041514 15.14041514041514
0.1523809523809524 0.1523809523809524 15.238095238095239
0.15335775335775337 0.15335775335775337 15.335775335775336
0.15433455433455434 0.15433455433455434 15.433455433455434
0.15531135531135531 0.15531135531135531 15.531135531135531
0.1562881562881563 0.1562881562881563 15.628815628815628
0.15726495726495726 0.15726495726495726 15.726495726495726
0.15824175824175823 0.15824175824175823 15.824175824175823
0.1592185592185592 0.1592185592185592 15.92185592185592
0.1601953601953602 0.1601953601953602 16.01953601953602
0.16117216117216118 0.16117216117216118 16.117216117216117
0.16214896214896216 0.16214896214896216 16.214896214896214
0.16312576312576313 0.16312576312576313 16.31257631257631
0.1641025641025641 0.1641025641025641 16.41025641025641
0.16507936507936508 0.16507936507936508 16.507936507936506
0.16605616605616605 0.16605616605616605 16.605616605616603
0.16703296703296702 0.16703296703296702 16.7032967032967
0.16800976800976802 0.16800976800976802 16.8009768009768
0.168986568986569 0.168986568986569 16.8986568986569
0.16996336996336997 0.16996336996336997 16.996336996336996
0.17094017094017094 0.17094017094017094 17.094017094017094
0.17191697191697192 0.17191697191697192 17.19169719169719
0.1728937728937729 0.1728937728937729 17.28937728937729
0.17387057387057386 0.17387057387057386 17.387057387057386
0.17484737484737484 0.17484737484737484 17.484737484737483
0.17582417582417584 0.17582417582417584 17.582417582417584
0.1768009768009768 0.1768009768009768 17.68009768009768
0.17777777777777778 0.17777777777777778 17.77777777777778
0.17875457875457876 0.17875457875457876 17.875457875457876
0.17973137973137973 0.17973137973137973 17.973137973137973
0.1807081807081807 0.1807081807081807 18.07081807081807
0.18168498168498168 0.18168498168498168 18.168498168498168
0.18266178266178265 0.18266178266178265 18.266178266178265
0.18363858363858365 0.18363858363858365 18.363858363858366
0.18461538461538463 0.18461538461538463 18.461538461538463
0.1855921855921856 0.1855921855921856 18.55921855921856
0.18656898656898657 0.18656898656898657 18.656898656898658
0.18754578754578755 0.18754578754578755 18.754578754578755
0.18852258852258852 0.18852258852258852 18.852258852258853
0.1894993894993895 0.1894993894993895 18.94993894993895
0.19047619047619047 0.19047619047619047 19.047619047619047
0.19145299145299147 0.19145299145299147 19.14529914529915
0.19242979242979244 0.19242979242979244 19.242979242979246
0.1934065934065934 0.1934065934065934 19.340659340659343
0.1943833943833944 0.1943833943833944 19.43833943833944
0.19536019536019536 0.19536019536019536 19.536019536019538
0.19633699633699633 0.19633699633699633 19.633699633699635
0.1973137973137973 0.1973137973137973 19.731379731379732
0.19829059829059828 0.19829059829059828 19.82905982905983
0.19926739926739928 0.19926739926739928 19.926739926739927
0.20024420024420025 0.20024420024420025 20.024420024420024
0.20122100122100123 0.20122100122100123 20.12210012210012
0.2021978021978022 0.2021978021978022 20.21978021978022
0.20317460317460317 0.20317460317460317 20.317460317460316
0.20415140415140415 0.20415140415140415 20.415140415140414
0.20512820512820512 0.20512820512820512 20.51282051282051
0.2061050061050061 0.2061050061050061 20.61050061050061
0.2070818070818071 0.2070818070818071 20.70818070818071
0.20805860805860807 0.20805860805860807 20.805860805860807
0.20903540903540904 0.20903540903540904 20.903540903540904
0.21001221001221002 0.21001221001221002 21.001221001221
0.210989010989011 0.210989010989011 21.0989010989011
0.21196581196581196 0.21196581196581196 21.196581196581196
0.21294261294261294 0.21294261294261294 21.294261294261293
0.2139194139194139 0.2139194139194139 21.39194139194139
0.2148962148962149 0.2148962148962149 21.48962148962149
0.21587301587301588 0.21587301587301588 21.58730158730159
0.21684981684981686 0.21684981684981686 21.684981684981686
0.21782661782661783 0.21782661782661783 21.782661782661783
0.2188034188034188 0.2188034188034188 21.88034188034188
0.21978021978021978 0.21978021978021978 21.978021978021978
0.22075702075702075 0.22075702075702075 22.075702075702075
0.22173382173382172 0.22173382173382172 22.173382173382173
0.22271062271062272 0.22271062271062272 22.271062271062274
0.2236874236874237 0.2236874236874237 22.36874236874237
0.22466422466422467 0.22466422466422467 22.46642246642247
0.22564102564102564 0.22564102564102564 22.564102564102566
0.22661782661782662 0.22661782661782662 22.661782661782663
0.2275946275946276 0.2275946275946276 22.75946275946276
0.22857142857142856 0.22857142857142856 22.857142857142858
0.22954822954822954 0.22954822954822954 22.954822954822955
0.23052503052503054 0.23052503052503054 23.052503052503052
0.2315018315018315 0.2315018315018315 23.15018315018315
0.23247863247863249 0.23247863247863249 23.247863247863247
0.23345543345543346 0.23345543345543346 23.345543345543344
0.23443223443223443 0.23443223443223443 23.44322344322344
0.2354090354090354 0.2354090354090354 23.54090354090354
0.23638583638583638 0.23638583638583638 23.638583638583636
0.23736263736263735 0.23736263736263735 23.736263736263734
0.23833943833943835 0.23833943833943835 23.833943833943835
0.23931623931623933 0.23931623931623933 23.931623931623932
0.2402930402930403 0.2402930402930403 24.02930402930403
0.24126984126984127 0.24126984126984127 24.126984126984127
0.24224664224664225 0.24224664224664225 24.224664224664224
0.24322344322344322 0.24322344322344322 24.32234432234432
0.2442002442002442 0.2442002442002442 24.42002442002442
0.24517704517704517 0.24517704517704517 24.517704517704516
0.24615384615384617 0.24615384615384617 24.615384615384617
0.24713064713064714 0.24713064713064714 24.713064713064714
0.24810744810744811 0.24810744810744811 24.81074481074481
0.2490842490842491 0.2490842490842491 24.90842490842491
0.25006105006105006 0.25006105006105006 25.006105006105006
0.25103785103785103 0.25103785103785103 25.103785103785103
0.252014652014652 0.252014652014652 25.2014652014652
0.252991452991453 0.252991452991453 25.299145299145298
0.25396825396825395 0.25396825396825395 25.396825396825395
0.2549450549450549 0.2549450549450549 25.494505494505493
0.2559218559218559 0.2559218559218559 25.59218559218559
0.2568986568986569 0.2568986568986569 25.689865689865687
0.2578754578754579 0.2578754578754579 25.787545787545792
0.2588522588522589 0.2588522588522589 25.88522588522589
0.25982905982905985 0.25982905982905985 25.982905982905987
0.2608058608058608 0.2608058608058608 26.080586080586084
0.2617826617826618 0.2617826617826618 26.17826617826618
0.26275946275946277 0.26275946275946277 26.27594627594628
0.26373626373626374 0.26373626373626374 26.373626373626376
0.2647130647130647 0.2647130647130647 26.471306471306473
0.2656898656898657 0.2656898656898657 26.56898656898657
0.26666666666666666 0.26666666666666666 26.666666666666668
0.26764346764346764 0.26764346764346764 26.764346764346765
0.2686202686202686 0.2686202686202686 26.862026862026863
0.2695970695970696 0.2695970695970696 26.95970695970696
0.27057387057387056 0.27057387057387056 27.057387057387057
0.27155067155067153 0.27155067155067153 27.155067155067155
0.2725274725274725 0.2725274725274725 27.252747252747252
0.27350427350427353 0.27350427350427353 27.350427350427353
0.2744810744810745 0.2744810744810745 27.44810744810745
0.2754578754578755 0.2754578754578755 27.545787545787547
0.27643467643467645 0.27643467643467645 27.643467643467645
0.2774114774114774 0.2774114774114774 27.741147741147742
0.2783882783882784 0.2783882783882784 27.83882783882784
0.27936507936507937 0.27936507936507937 27.936507936507937
0.28034188034188035 0.28034188034188035 28.034188034188034
0.2813186813186813 0.2813186813186813 28.13186813186813
0.2822954822954823 0.2822954822954823 28.22954822954823
0.28327228327228327 0.28327228327228327 28.327228327228326
0.28424908424908424 0.28424908424908424 28.424908424908423
0.2852258852258852 0.2852258852258852 28.52258852258852
0.2862026862026862 0.2862026862026862 28.620268620268618
0.28717948717948716 0.28717948717948716 28.717948717948715
0.28815628815628813 0.28815628815628813 28.815628815628813
0.28913308913308916 0.28913308913308916 28.913308913308917
0.29010989010989013 0.29010989010989013 29.010989010989015
0.2910866910866911 0.2910866910866911 29.108669108669112
0.2920634920634921 0.2920634920634921 29.20634920634921
0.29304029304029305 0.29304029304029305 29.304029304029307
0.294017094017094 0.294017094017094 29.401709401709404
0.294993894993895 0.294993894993895 29.4993894993895
0.295970695970696 0.295970695970696 29.5970695970696
0.29694749694749695 0.29694749694749695 29.694749694749696
0.2979242979242979 0.2979242979242979 29.792429792429793
0.2989010989010989 0.2989010989010989 29.89010989010989
0.29987789987789987 0.29987789987789987 29.987789987789988
0.30085470085470084 0.30085470085470084 30.085470085470085
0.3018315018315018 0.3018315018315018 30.183150183150182
0.3028083028083028 0.3028083028083028 30.28083028083028
0.30378510378510376 0.30378510378510376 30.378510378510377
0.3047619047619048 0.3047619047619048 30.476190476190478
0.30573870573870576 0.30573870573870576 30.573870573870575
0.30671550671550674 0.30671550671550674 30.671550671550673
0.3076923076923077 0.3076923076923077 30.76923076923077
0.3086691086691087 0.3086691086691087 30.866910866910867
0.30964590964590966 0.30964590964590966 30.964590964590965
0.31062271062271063 0.31062271062271063 31.062271062271062
0.3115995115995116 0.3115995115995116 31.15995115995116
0.3125763125763126 0.3125763125763126 31.257631257631257
0.31355311355311355 0.31355311355311355 31.355311355311354
0.3145299145299145 0.3145299145299145 31.45299145299145
0.3155067155067155 0.3155067155067155 31.55067155067155
0.31648351648351647 0.31648351648351647 31.648351648351646
0.31746031746031744 0.31746031746031744 31.746031746031743
0.3184371184371184 0.3184371184371184 31.84371184371184
0.3194139194139194 0.3194139194139194 31.941391941391938
0.3203907203907204 0.3203907203907204 32.03907203907204
0.3213675213675214 0.3213675213675214 32.136752136752136
0.32234432234432236 0.32234432234432236 32.234432234432234
0.32332112332112334 0.32332112332112334 32.33211233211233
0.3242979242979243 0.3242979242979243 32.42979242979243
0.3252747252747253 0.3252747252747253 32.527472527472526
0.32625152625152626 0.32625152625152626 32.62515262515262
0.32722832722832723 0.32722832722832723 32.72283272283272
0.3282051282051282 0.3282051282051282 32.82051282051282
0.3291819291819292 0.3291819291819292 32.918192918192915
0.33015873015873015 0.33015873015873015 33.01587301587301
0.3311355311355311 0.3311355311355311 33.11355311355311
0.3321123321123321 0.3321123321123321 33.21123321123321
0.33308913308913307 0.33308913308913307 33.308913308913304
0.33406593406593404 0.33406593406593404 33.4065934065934
0.335042735042735 0.335042735042735 33.5042735042735
0.33601953601953605 0.33601953601953605 33.6019536019536
0.336996336996337 0.336996336996337 33.6996336996337
0.337973137973138 0.337973137973138 33.7973137973138
0.33894993894993897 0.33894993894993897 33.894993894993895
0.33992673992673994 0.33992673992673994 33.99267399267399
0.3409035409035409 0.3409035409035409 34.09035409035409
0.3418803418803419 0.3418803418803419 34.18803418803419
0.34285714285714286 0.34285714285714286 34.285714285714285
0.34383394383394383 0.34383394383394383 34.38339438339438
0.3448107448107448 0.3448107448107448 34.48107448107448
0.3457875457875458 0.3457875457875458 34.57875457875458
0.34676434676434675 0.34676434676434675 34.676434676434674
0.3477411477411477 0.3477411477411477 34.77411477411477
0.3487179487179487 0.3487179487179487 34.87179487179487
0.3496947496947497 0.3496947496947497 34.969474969474966
0.35067155067155065 0.35067155067155065 35.06715506715506
0.3516483516483517 0.3516483516483517 35.16483516483517
0.35262515262515265 0.35262515262515265 35.262515262515265
0.3536019536019536 0.3536019536019536 35.36019536019536
0.3545787545787546 0.3545787545787546 35.45787545787546
0.35555555555555557 0.35555555555555557 35.55555555555556
0.35653235653235654 0.35653235653235654 35.653235653235654
0.3575091575091575 0.3575091575091575 35.75091575091575
0.3584859584859585 0.3584859584859585 35.84859584859585
0.35946275946275946 0.35946275946275946 35.94627594627595
0.36043956043956044 0.36043956043956044 36.043956043956044
0.3614163614163614 0.3614163614163614 36.14163614163614
0.3623931623931624 0.3623931623931624 36.23931623931624
0.36336996336996336 0.36336996336996336 36.336996336996336
0.36434676434676433 0.36434676434676433 36.43467643467643
0.3653235653235653 0.3653235653235653 36.53235653235653
0.3663003663003663 0.3663003663003663 36.63003663003663
0.3672771672771673 0.3672771672771673 36.72771672771673
0.3682539682539683 0.3682539682539683 36.82539682539683
0.36923076923076925 0.36923076923076925 36.92307692307693
0.3702075702075702 0.3702075702075702 37.020757020757024
0.3711843711843712 0.3711843711843712 37.11843711843712
0.37216117216117217 0.37216117216117217 37.21611721611722
0.37313797313797314 0.37313797313797314 37.313797313797316
0.3741147741147741 0.3741147741147741 37.411477411477414
0.3750915750915751 0.3750915750915751 37.50915750915751
0.37606837606837606 0.37606837606837606 37.60683760683761
0.37704517704517704 0.37704517704517704 37.704517704517706
0.378021978021978 0.378021978021978 37.8021978021978
0.378998778998779 0.378998778998779 37.8998778998779
0.37997557997557996 0.37997557997557996 37.997557997558
0.38095238095238093 0.38095238095238093 38.095238095238095
0.3819291819291819 0.3819291819291819 38.19291819291819
0.38290598290598293 0.38290598290598293 38.2905982905983
0.3838827838827839 0.3838827838827839 38.388278388278394
0.3848595848595849 0.3848595848595849 38.48595848595849
0.38583638583638585 0.38583638583638585 38.58363858363859
0.3868131868131868 0.3868131868131868 38.681318681318686
0.3877899877899878 0.3877899877899878 38.77899877899878
0.3887667887667888 0.3887667887667888 38.87667887667888
0.38974358974358975 0.38974358974358975 38.97435897435898
0.3907203907203907 0.3907203907203907 39.072039072039075
0.3916971916971917 0.3916971916971917 39.16971916971917
0.39267399267399267 0.39267399267399267 39.26739926739927
0.39365079365079364 0.39365079365079364 39.36507936507937
0.3946275946275946 0.3946275946275946 39.462759462759465
0.3956043956043956 0.3956043956043956 39.56043956043956
0.39658119658119656 0.39658119658119656 39.65811965811966
0.39755799755799753 0.39755799755799753 39.75579975579976
0.39853479853479856 0.39853479853479856 39.853479853479854
0.39951159951159954 0.39951159951159954 39.95115995115995
0.4004884004884005 0.4004884004884005 40.04884004884005
0.4014652014652015 0.4014652014652015 40.146520146520146
0.40244200244200246 0.40244200244200246 40.24420024420024
